X:1
T:Title
%%score ( 1 2 ) { 3 | 4 }
L:1/8
Q:1/4=115
M:4/4
K:G
V:1 treble nm="Grand Piano, Soprano"
V:2 treble 
V:3 bass nm="Choir Pad, Rajasthan, Fillmore, 1893"
V:4 bass 
V:1
 [DB]4 [CA]2 [B,G]2 | [B,D]6 [DG]2 | [DF]2 [DG]2 [Dc]2 [DB]2 | B4 A4 | [DB]4 [DA]2 [DG]2 | %5
w: By~James~Henry~Fillmore,~Sr.,~1893 * *|||||
 [CE]6 [EA]2 | [DG]2 [DG]2 [DF]2 [DF]2 | [DG]8 | [Gd]4 [Fc]2 [Fc]2 | [GB]6 [FA]2 | %10
w: |||||
 [EG]2 [^DF]2 [EG]2 [EA]2 | F3 E D4 | [DB]4 [DA]2 [DG]2 | [DF]4 [CE]4 | [B,D]2 D2 [CE]2 [CD]2 | %15
w: |||||
 [B,G]8 |] %16
w: |
V:2
 x8 | x8 | x8 | D8 | x8 | x8 | x8 | x8 | x8 | x8 | x8 | D4 z4 | x8 | x8 | x8 | x8 |] %16
V:3
 G,4 G,2 G,2 | G,6 D2 | C2 B,2 A,2 G,2 | G,4 F,4 | G,4 F,2 G,2 | G,6 C2 | B,2 B,2 A,2 A,2 | B,8 | %8
 D4 D2 D2 | D6 C2 | B,2 B,2 B,2 A,2 | A,3 G, F,4 | G,4 F,2 G,2 | G,4 G,4 | G,2 B,2 A,2 F,2 | G,8 |] %16
V:4
 z8 | z4 z2 B,2 | A,2 G,2 F,2 z2 | D,8 | G,,4 A,,2 B,,2 | C,6 C,2 | D,2 D,2 D,2 D,2 | [G,,G,]8 | %8
 B,4 A,2 A,2 | G,6 D,2 | E,2 B,,2 E,2 ^C,2 | D,8 | G,,4 A,,2 B,,2 | C,4 C,4 | D,2 D,2 D,2 D,2 | %15
 G,,8 |] %16

